humanity-icon-theme/Humanity/status/24/image-missing.svg

<?xml version="1.0" encoding="UTF-8" standalone="no"?>
<!-- Created with Inkscape (http://www.inkscape.org/) -->

<svg
   xmlns:svg="http://www.w3.org/2000/svg"
   xmlns="http://www.w3.org/2000/svg"
   xmlns:xlink="http://www.w3.org/1999/xlink"
   version="1.0"
   width="24"
   height="24"
   id="svg2">
  <defs
     id="defs4">
    <linearGradient
       id="linearGradient3610-302">
      <stop
         id="stop3796"
         style="stop-color:#333;stop-opacity:1"
         offset="0" />
      <stop
         id="stop3798"
         style="stop-color:#292929;stop-opacity:1"
         offset="1" />
    </linearGradient>
    <linearGradient
       x1="-24.032034"
       y1="-13.090545"
       x2="-24.097931"
       y2="-40.163883"
       id="linearGradient2523"
       xlink:href="#linearGradient3610-302"
       gradientUnits="userSpaceOnUse"
       gradientTransform="matrix(0.5428573,0,0,0.5555556,1.0357211,3.004001)" />
    <linearGradient
       id="linearGradient4157-401-351">
      <stop
         id="stop3790"
         style="stop-color:#262626;stop-opacity:1"
         offset="0" />
      <stop
         id="stop3792"
         style="stop-color:#828282;stop-opacity:1"
         offset="1" />
    </linearGradient>
    <linearGradient
       x1="28.938274"
       y1="17.33289"
       x2="105.36545"
       y2="92.823723"
       id="linearGradient2521"
       xlink:href="#linearGradient4157-401-351"
       gradientUnits="userSpaceOnUse"
       gradientTransform="matrix(0.2391271,0,0,0.1901676,-28.247959,-22.920364)" />
    <linearGradient
       id="linearGradient259-942">
      <stop
         id="stop3802"
         style="stop-color:white;stop-opacity:1"
         offset="0" />
      <stop
         id="stop3804"
         style="stop-color:#e0e0e0;stop-opacity:1"
         offset="1" />
    </linearGradient>
    <linearGradient
       x1="108.26451"
       y1="110.28094"
       x2="25.817675"
       y2="14.029031"
       id="linearGradient2526"
       xlink:href="#linearGradient259-942"
       gradientUnits="userSpaceOnUse"
       gradientTransform="matrix(0.2589474,0,0,0.1853811,-29.552425,-23.919907)" />
    <radialGradient
       cx="605.71429"
       cy="486.64789"
       r="117.14286"
       fx="605.71429"
       fy="486.64789"
       id="radialGradient2518"
       xlink:href="#linearGradient5060"
       gradientUnits="userSpaceOnUse"
       gradientTransform="matrix(-0.03142725,0,0,0.01508077,-2.812712,20.02493)" />
    <linearGradient
       id="linearGradient5060">
      <stop
         id="stop5062"
         style="stop-color:black;stop-opacity:1"
         offset="0" />
      <stop
         id="stop5064"
         style="stop-color:black;stop-opacity:0"
         offset="1" />
    </linearGradient>
    <radialGradient
       cx="605.71429"
       cy="486.64789"
       r="117.14286"
       fx="605.71429"
       fy="486.64789"
       id="radialGradient2516"
       xlink:href="#linearGradient5060"
       gradientUnits="userSpaceOnUse"
       gradientTransform="matrix(0.03142725,0,0,0.01508077,-24.517756,20.02493)" />
    <linearGradient
       id="linearGradient5048">
      <stop
         id="stop5050"
         style="stop-color:black;stop-opacity:0"
         offset="0" />
      <stop
         id="stop5056"
         style="stop-color:black;stop-opacity:1"
         offset="0.5" />
      <stop
         id="stop5052"
         style="stop-color:black;stop-opacity:0"
         offset="1" />
    </linearGradient>
    <linearGradient
       x1="302.85715"
       y1="366.64789"
       x2="302.85715"
       y2="609.50507"
       id="linearGradient2514"
       xlink:href="#linearGradient5048"
       gradientUnits="userSpaceOnUse"
       gradientTransform="matrix(0.03345303,0,0,0.01508077,-25.772132,20.02493)" />
    <linearGradient
       id="linearGradient2490-794">
      <stop
         id="stop2699"
         style="stop-color:#8f153e;stop-opacity:1"
         offset="0" />
      <stop
         id="stop2701"
         style="stop-color:#e04e3d;stop-opacity:1"
         offset="1" />
    </linearGradient>
    <linearGradient
       x1="18.379412"
       y1="44.980297"
       x2="18.379412"
       y2="3.0816143"
       id="linearGradient2471-622"
       xlink:href="#linearGradient2490-794"
       gradientUnits="userSpaceOnUse"
       gradientTransform="matrix(0.270267,0,0,0.270267,5.5135924,5.5135923)" />
    <linearGradient
       id="linearGradient3242-485">
      <stop
         id="stop2689"
         style="stop-color:#f9bf96;stop-opacity:1"
         offset="0" />
      <stop
         id="stop2691"
         style="stop-color:#e67164;stop-opacity:1"
         offset="0.26238" />
      <stop
         id="stop2693"
         style="stop-color:#d62e36;stop-opacity:1"
         offset="0.66093999" />
      <stop
         id="stop2695"
         style="stop-color:#800d66;stop-opacity:1"
         offset="1" />
    </linearGradient>
    <radialGradient
       cx="23.895569"
       cy="3.9900031"
       r="20.397499"
       fx="23.895569"
       fy="3.9900031"
       id="radialGradient2469-761"
       xlink:href="#linearGradient3242-485"
       gradientUnits="userSpaceOnUse"
       gradientTransform="matrix(0,0.6450347,-0.8514343,0,15.397226,-9.3267498)" />
  </defs>
  <g
     id="layer1">
    <g
       id="g2821">
      <g
         transform="translate(25.665236,-6.216738)"
         id="g2509">
        <rect
           width="16.153034"
           height="3.6624739"
           x="-21.757769"
           y="25.554264"
           id="rect4173"
           style="opacity:0.40206185;fill:url(#linearGradient2514);fill-opacity:1;fill-rule:nonzero;stroke:none;stroke-width:1;marker:none;visibility:visible;display:inline;overflow:visible" />
        <path
           d="m -5.577801,25.55439 c 0,0 0,3.662272 0,3.662272 1.618426,0.0069 3.912566,-0.820529 3.912565,-1.831372 0,-1.010842 -1.806041,-1.8309 -3.912565,-1.8309 z"
           id="path5058"
           style="opacity:0.40206185;fill:url(#radialGradient2516);fill-opacity:1;fill-rule:nonzero;stroke:none;stroke-width:1;marker:none;visibility:visible;display:inline;overflow:visible" />
        <path
           d="m -21.752671,25.55439 c 0,0 0,3.662272 0,3.662272 -1.618426,0.0069 -3.912565,-0.820529 -3.912565,-1.831372 0,-1.010842 1.806041,-1.8309 3.912565,-1.8309 z"
           id="path5018"
           style="opacity:0.40206185;fill:url(#radialGradient2518);fill-opacity:1;fill-rule:nonzero;stroke:none;stroke-width:1;marker:none;visibility:visible;display:inline;overflow:visible" />
      </g>
      <rect
         width="22.982403"
         height="18.958878"
         x="-23.480038"
         y="-21.5009"
         transform="matrix(-0.9999984,0.00178969,-9.3019359e-4,-0.9999996,0,0)"
         id="rect3580"
         style="fill:url(#linearGradient2526);fill-opacity:1;stroke:#b3b3b3;stroke-width:0.99999982;stroke-linecap:round;stroke-linejoin:miter;stroke-miterlimit:4;stroke-opacity:0.96862745;stroke-dasharray:none" />
      <rect
         width="18.96464"
         height="14.926951"
         rx="0"
         ry="0"
         x="-21.511057"
         y="-19.509869"
         transform="matrix(-0.9999926,0.00385405,0.00237835,-0.9999972,0,0)"
         id="rect3582"
         style="fill:url(#linearGradient2521);fill-opacity:1;stroke:url(#linearGradient2523);stroke-width:1.00000942;stroke-linecap:round;stroke-linejoin:miter;stroke-miterlimit:4;stroke-opacity:1;stroke-dasharray:none" />
    </g>
    <path
       d="m 12.000001,6.5017561 c -3.0337411,0 -5.4982456,2.4645024 -5.4982456,5.4982439 0,3.033742 2.4645045,5.498246 5.4982456,5.498244 3.03374,0 5.498246,-2.464502 5.498244,-5.498244 0,-3.0337415 -2.464504,-5.4982439 -5.498244,-5.4982439 z m 0,1.7651813 c 2.062535,0 3.733063,1.6705281 3.733063,3.7330626 0,0.865629 -0.299927,1.655806 -0.793911,2.288824 L 10.209483,8.7230127 C 10.740874,8.4322571 11.351259,8.2669374 12.000001,8.2669374 z M 9.0101716,9.7702973 13.722953,15.310771 c -0.515448,0.26854 -1.101258,0.422293 -1.722952,0.422293 -2.062535,0 -3.7330631,-1.670529 -3.7330631,-3.733064 0,-0.837904 0.2775509,-1.606912 0.7432337,-2.2297027 z"
       id="path2555"
       style="fill:url(#radialGradient2469-761);fill-opacity:1;stroke:url(#linearGradient2471-622);stroke-width:1.00365424;stroke-linecap:round;stroke-linejoin:round;stroke-miterlimit:4;stroke-opacity:1;stroke-dasharray:none;stroke-dashoffset:0" />
  </g>
</svg>

<?xml version="1.0" encoding="UTF-8" standalone="no"?>
<!-- Created with Inkscape (http://www.inkscape.org/) -->
<svg
   xmlns:svg="http://www.w3.org/2000/svg"
   xmlns="http://www.w3.org/2000/svg"
   xmlns:xlink="http://www.w3.org/1999/xlink"
   version="1.0"
   width="24"
   height="24"
   id="svg2">
  <defs
     id="defs4">
    <linearGradient
       id="linearGradient3610-302">
      <stop
         id="stop3796"
         style="stop-color:#333333;stop-opacity:1"
         offset="0" />
      <stop
         id="stop3798"
         style="stop-color:#292929;stop-opacity:1"
         offset="1" />
    </linearGradient>
    <linearGradient
       x1="-24.032034"
       y1="-13.090545"
       x2="-24.097931"
       y2="-40.163883"
       id="linearGradient2523"
       xlink:href="#linearGradient3610-302"
       gradientUnits="userSpaceOnUse"
       gradientTransform="matrix(0.5428573,0,0,0.5555556,1.0357211,3.004001)" />
    <linearGradient
       id="linearGradient4157-401-351">
      <stop
         id="stop3790"
         style="stop-color:#262626;stop-opacity:1"
         offset="0" />
      <stop
         id="stop3792"
         style="stop-color:#828282;stop-opacity:1"
         offset="1" />
    </linearGradient>
    <linearGradient
       x1="28.938274"
       y1="17.33289"
       x2="105.36545"
       y2="92.823723"
       id="linearGradient2521"
       xlink:href="#linearGradient4157-401-351"
       gradientUnits="userSpaceOnUse"
       gradientTransform="matrix(0.2391271,0,0,0.1901676,-28.247959,-22.920364)" />
    <linearGradient
       id="linearGradient259-942">
      <stop
         id="stop3802"
         style="stop-color:#ffffff;stop-opacity:1"
         offset="0" />
      <stop
         id="stop3804"
         style="stop-color:#e0e0e0;stop-opacity:1"
         offset="1" />
    </linearGradient>
    <linearGradient
       x1="108.26451"
       y1="110.28094"
       x2="25.817675"
       y2="14.029031"
       id="linearGradient2526"
       xlink:href="#linearGradient259-942"
       gradientUnits="userSpaceOnUse"
       gradientTransform="matrix(0.2589474,0,0,0.1853811,-29.552425,-23.919907)" />
    <radialGradient
       cx="605.71429"
       cy="486.64789"
       r="117.14286"
       fx="605.71429"
       fy="486.64789"
       id="radialGradient2518"
       xlink:href="#linearGradient5060"
       gradientUnits="userSpaceOnUse"
       gradientTransform="matrix(-3.1427247e-2,0,0,1.5080774e-2,-2.812712,20.02493)" />
    <linearGradient
       id="linearGradient5060">
      <stop
         id="stop5062"
         style="stop-color:#000000;stop-opacity:1"
         offset="0" />
      <stop
         id="stop5064"
         style="stop-color:#000000;stop-opacity:0"
         offset="1" />
    </linearGradient>
    <radialGradient
       cx="605.71429"
       cy="486.64789"
       r="117.14286"
       fx="605.71429"
       fy="486.64789"
       id="radialGradient2516"
       xlink:href="#linearGradient5060"
       gradientUnits="userSpaceOnUse"
       gradientTransform="matrix(3.1427247e-2,0,0,1.5080774e-2,-24.517756,20.02493)" />
    <linearGradient
       id="linearGradient5048">
      <stop
         id="stop5050"
         style="stop-color:#000000;stop-opacity:0"
         offset="0" />
      <stop
         id="stop5056"
         style="stop-color:#000000;stop-opacity:1"
         offset="0.5" />
      <stop
         id="stop5052"
         style="stop-color:#000000;stop-opacity:0"
         offset="1" />
    </linearGradient>
    <linearGradient
       x1="302.85715"
       y1="366.64789"
       x2="302.85715"
       y2="609.50507"
       id="linearGradient2514"
       xlink:href="#linearGradient5048"
       gradientUnits="userSpaceOnUse"
       gradientTransform="matrix(3.3453029e-2,0,0,1.5080774e-2,-25.772132,20.02493)" />
    <linearGradient
       id="linearGradient2490-794">
      <stop
         id="stop2699"
         style="stop-color:#8f153e;stop-opacity:1"
         offset="0" />
      <stop
         id="stop2701"
         style="stop-color:#e04e3d;stop-opacity:1"
         offset="1" />
    </linearGradient>
    <linearGradient
       x1="18.379412"
       y1="44.980297"
       x2="18.379412"
       y2="3.0816143"
       id="linearGradient2471-622"
       xlink:href="#linearGradient2490-794"
       gradientUnits="userSpaceOnUse"
       gradientTransform="matrix(0.270267,0,0,0.270267,5.5135924,5.5135923)" />
    <linearGradient
       id="linearGradient3242-485">
      <stop
         id="stop2689"
         style="stop-color:#f9bf96;stop-opacity:1"
         offset="0" />
      <stop
         id="stop2691"
         style="stop-color:#e67164;stop-opacity:1"
         offset="0.26238" />
      <stop
         id="stop2693"
         style="stop-color:#d62e36;stop-opacity:1"
         offset="0.66093999" />
      <stop
         id="stop2695"
         style="stop-color:#800d66;stop-opacity:1"
         offset="1" />
    </linearGradient>
    <radialGradient
       cx="23.895569"
       cy="3.9900031"
       r="20.397499"
       fx="23.895569"
       fy="3.9900031"
       id="radialGradient2469-761"
       xlink:href="#linearGradient3242-485"
       gradientUnits="userSpaceOnUse"
       gradientTransform="matrix(0,0.6450347,-0.8514343,0,15.397226,-9.3267498)" />
  </defs>
  <g
     id="layer1">
    <g
       id="g2821">
      <g
         transform="translate(25.665236,-6.216738)"
         id="g2509">
        <rect
           width="16.153034"
           height="3.6624739"
           x="-21.757769"
           y="25.554264"
           id="rect4173"
           style="opacity:0.40206185;fill:url(#linearGradient2514);fill-opacity:1;fill-rule:nonzero;stroke:none;stroke-width:1;stroke-linecap:round;stroke-linejoin:miter;marker:none;marker-start:none;marker-mid:none;marker-end:none;stroke-miterlimit:4;stroke-dasharray:none;stroke-dashoffset:0;stroke-opacity:1;visibility:visible;display:inline;overflow:visible" />
        <path
           d="M -5.577801,25.55439 C -5.577801,25.55439 -5.577801,29.216662 -5.577801,29.216662 C -3.959375,29.223556 -1.665235,28.396133 -1.665236,27.38529 C -1.665236,26.374448 -3.471277,25.55439 -5.577801,25.55439 z"
           id="path5058"
           style="opacity:0.40206185;fill:url(#radialGradient2516);fill-opacity:1;fill-rule:nonzero;stroke:none;stroke-width:1;stroke-linecap:round;stroke-linejoin:miter;marker:none;marker-start:none;marker-mid:none;marker-end:none;stroke-miterlimit:4;stroke-dasharray:none;stroke-dashoffset:0;stroke-opacity:1;visibility:visible;display:inline;overflow:visible" />
        <path
           d="M -21.752671,25.55439 C -21.752671,25.55439 -21.752671,29.216662 -21.752671,29.216662 C -23.371097,29.223556 -25.665236,28.396133 -25.665236,27.38529 C -25.665236,26.374448 -23.859195,25.55439 -21.752671,25.55439 z"
           id="path5018"
           style="opacity:0.40206185;fill:url(#radialGradient2518);fill-opacity:1;fill-rule:nonzero;stroke:none;stroke-width:1;stroke-linecap:round;stroke-linejoin:miter;marker:none;marker-start:none;marker-mid:none;marker-end:none;stroke-miterlimit:4;stroke-dasharray:none;stroke-dashoffset:0;stroke-opacity:1;visibility:visible;display:inline;overflow:visible" />
      </g>
      <rect
         width="22.982403"
         height="18.958878"
         x="-23.480038"
         y="-21.5009"
         transform="matrix(-0.9999984,1.7896871e-3,-9.3019359e-4,-0.9999996,0,0)"
         id="rect3580"
         style="fill:url(#linearGradient2526);fill-opacity:1;stroke:#b3b3b3;stroke-width:0.99999982;stroke-linecap:round;stroke-linejoin:miter;stroke-miterlimit:4;stroke-dasharray:none;stroke-opacity:0.96862745" />
      <rect
         width="18.96464"
         height="14.926951"
         rx="0"
         ry="0"
         x="-21.511057"
         y="-19.509869"
         transform="matrix(-0.9999926,3.8540517e-3,2.3783482e-3,-0.9999972,0,0)"
         id="rect3582"
         style="fill:url(#linearGradient2521);fill-opacity:1;stroke:url(#linearGradient2523);stroke-width:1.00000942;stroke-linecap:round;stroke-linejoin:miter;stroke-miterlimit:4;stroke-dasharray:none;stroke-opacity:1" />
    </g>
    <path
       d="M 12.000001,6.5017561 C 8.9662599,6.5017561 6.5017554,8.9662585 6.5017554,12 C 6.5017554,15.033742 8.9662599,17.498246 12.000001,17.498244 C 15.033741,17.498244 17.498247,15.033742 17.498245,12 C 17.498245,8.9662585 15.033741,6.5017561 12.000001,6.5017561 z M 12.000001,8.2669374 C 14.062536,8.2669374 15.733064,9.9374655 15.733064,12 C 15.733064,12.865629 15.433137,13.655806 14.939153,14.288824 L 10.209483,8.7230127 C 10.740874,8.4322571 11.351259,8.2669374 12.000001,8.2669374 z M 9.0101716,9.7702973 L 13.722953,15.310771 C 13.207505,15.579311 12.621695,15.733064 12.000001,15.733064 C 9.937466,15.733064 8.2669379,14.062535 8.2669379,12 C 8.2669379,11.162096 8.5444888,10.393088 9.0101716,9.7702973 z"
       id="path2555"
       style="fill:url(#radialGradient2469-761);fill-opacity:1;stroke:url(#linearGradient2471-622);stroke-width:1.00365424;stroke-linecap:round;stroke-linejoin:round;stroke-miterlimit:4;stroke-dasharray:none;stroke-dashoffset:0;stroke-opacity:1" />
  </g>
</svg>
